X: 26
T: Drunken-man Dance Song (d)
C: Anon.
%%abc-version 2.0
%%abcx-abcm2ps-target-version 5.9.1 (29 Sep 2008)
%%abc-creator hum2abc beta
%%abcx-conversion-date 2020/08/10 20:56:09
%%abc-copyright Electronic Copyright 2000 David Huron
%%abc-edited-by David Huron
%%abcx-initial-encoding-date August 27, 2000
%%humdrum-veritas 106771304
%%humdrum-veritas-data 1416652678
%%linebreak <none>
%%barnumbers 0
L: 1/8
M: 2/4
Q: 1/4=96
K: Ab clef=bass
F, F, A,3/ F,/ | 
A,2A, F, | 
A,2A, F, | 
F,2F,2 | 
F, F, A,3/ F,/ | 
A,2A, z | 
A,2F, F, | 
F,2F,2 ]|:  
F, CC2 [I:setbarnb 10]| 
B,2A, F, | 
A,2A, z | 
A, A, F, F, | 
F,2F,2 | 
B,2A, F, | 
A,2A, z | 
A, A, F, F, | 
F,2F,2 | 
F, CC2 | 
A,2C C | 
B,3z | 
A,2F, F, | 
F,2F,2 | 
C CC2 | 
B,2A, F, | 
A,2A, z | 
A,2F, F, | 
F,2F, z | 
F,2A, F, | 
A,2A, z | 
A,2F, F, | 
F,2F,2 :|]  
B,2A, F, [I:setbarnb 33]| 
A,2A, z | 
A,2F, F, | 
F,2F, z |]  


